workspaces/osm/styles/symbols/waste_basket.10.svg

<svg width="10" height="10" version="1.1" viewBox="0 0 10 10" xmlns="http://www.w3.org/2000/svg"><rect id="a" width="10" height="10" fill="none" visibility="hidden"/><path id="b" d="m4 2h-1l-1 1h6l-1-1h-1l-1-1-1 1zm-2 2c0.33333 1.6667 0.66667 3.3333 1 5h4c0.33333-1.6667 0.66667-3.3333 1-5h-6z"/></svg>

<?xml version="1.0" encoding="UTF-8" standalone="no"?>
<!-- Created with Inkscape (http://www.inkscape.org/) -->

<svg
   xmlns:dc="http://purl.org/dc/elements/1.1/"
   xmlns:cc="http://creativecommons.org/ns#"
   xmlns:rdf="http://www.w3.org/1999/02/22-rdf-syntax-ns#"
   xmlns:svg="http://www.w3.org/2000/svg"
   xmlns="http://www.w3.org/2000/svg"
   version="1.1"
   width="10"
   height="10"
   viewBox="0 0 10 10"
   id="svg2">
  <metadata
     id="metadata8">
    <rdf:RDF>
      <cc:Work
         rdf:about="">
        <dc:format>image/svg+xml</dc:format>
        <dc:type
           rdf:resource="http://purl.org/dc/dcmitype/StillImage" />
        <dc:title></dc:title>
      </cc:Work>
    </rdf:RDF>
  </metadata>
  <defs
     id="defs6" />
  <rect
     width="10"
     height="10"
     x="0"
     y="0"
     id="canvas"
     style="fill:none;stroke:none;visibility:hidden" />
  <path
     d="M 4,2 3,2 2,3 8,3 7,2 6,2 5,1 z M 2,4 3,9 7,9 8,4 z"
     id="waste-basket"
     style="fill:#000000;fill-opacity:1;stroke:none" />
</svg>
